assets/images/pin-start.svg

<svg fill="none" height="36" viewBox="0 0 26 36" width="26" xmlns="http://www.w3.org/2000/svg" xmlns:xlink="http://www.w3.org/1999/xlink"><clipPath id="a"><path d="m0 0h25.714v36h-25.714z"/></clipPath><g clip-path="url(#a)"><path d="m12.857-.00004786c-3.37276-.02380144-6.61792 1.28789786-9.02684 3.64865786-2.40891 2.36077-3.7858645 5.57879-3.83016 8.95139 0 9.4499 12.857 23.4 12.857 23.4s12.857-13.9501 12.857-23.4c-.0443-3.3726-1.4212-6.59062-3.8302-8.95139-2.4089-2.36076-5.654-3.6724593-9.0268-3.64865786zm0 17.10004786c-.8859-.0182-1.7467-.2974-2.4745-.8027-.72782-.5054-1.29026-1.2144-1.61679-2.0381s-.40262-1.7254-.21874-2.5922c.18389-.8668.61956-1.66 1.25241-2.28012.63282-.62017 1.43472-1.0397 2.30502-1.20601s1.7703-.07199 2.5873.27115c.8169.34313 1.5143.9198 2.0048 1.65768.4906.7379.7523 1.6042.7525 2.4903.0001.5987-.1192 1.1915-.3511 1.7435-.2319.5521-.5716 1.0523-.9993 1.4714-.4276.4191-.9346.7486-1.4913.9693-.5566.2206-1.1517.328-1.7503.3158z" fill="#afb6c6"/></g></svg>

<svg width="26" height="36" viewBox="0 0 26 36" fill="none" xmlns="http://www.w3.org/2000/svg">
<g clip-path="url(#clip0)">
<path d="M12.857 -4.7864e-05C9.48424 -0.0238493 6.23908 1.28785 3.83016 3.64861C1.42125 6.00938 0.0442955 9.2274 0 12.6C0 22.0499 12.857 36 12.857 36C12.857 36 25.714 22.0499 25.714 12.6C25.6697 9.2274 24.2928 6.00938 21.8838 3.64861C19.4749 1.28785 16.2298 -0.0238493 12.857 -4.7864e-05ZM12.857 17.1C11.9711 17.0818 11.1103 16.8026 10.3825 16.2973C9.65468 15.7919 9.09224 15.0829 8.76571 14.2592C8.43918 13.4355 8.36309 12.5338 8.54697 11.667C8.73086 10.8002 9.16653 10.007 9.79938 9.38688C10.4322 8.76671 11.2341 8.34718 12.1044 8.18087C12.9747 8.01456 13.8747 8.10888 14.6917 8.45202C15.5086 8.79515 16.206 9.37182 16.6965 10.1097C17.1871 10.8476 17.4488 11.7139 17.449 12.6C17.4491 13.1987 17.3298 13.7915 17.0979 14.3435C16.866 14.8956 16.5263 15.3958 16.0986 15.8149C15.671 16.234 15.164 16.5635 14.6073 16.7842C14.0507 17.0048 13.4556 17.1122 12.857 17.1Z" fill="#AFB6C6"/>
</g>
<defs>
<clipPath id="clip0">
<rect width="25.714" height="36" fill="white"/>
</clipPath>
</defs>
</svg>
